X:1
T: Jump At The Sun
C: John Kirkpatrick
Z: Edgar Bolton
S: https://thesession.org/tunes/736#setting45113
R: jig
M: 6/8
L: 1/8
K: Emin
|:"Em"EGB ^A2 B|"Em"EGB ^A2 B|"Em"eBB eBB|"Em"BAG "B7"F3|
"Em"EGB ^A2 B|"Em"EGB ^A2 B|"Em"eBB "Am"cBA|"B7"GAF "Em"E2 B:|
|:"Em"eBB gfe|"B7"fBB agf|"Em"gfe gfe|"B7"fBB c2 B|
"Em"eBB gfe|"B7"fBB agf|"Em"e2 B cBA|1 "B7"GAF "Em"E2 B:|2 "B7"GAF "Em"E3||

